images/twitter.svg

<svg width="16" height="14" viewBox="0 0 16 14" fill="none" xmlns="http://www.w3.org/2000/svg">
<g clip-path="url(#clip0_11534_7054)">
<path d="M10.3467 0.154515C11.9467 -0.34346 13.12 0.4533 13.76 1.25006C14.2933 1.05087 14.9333 0.85168 15.5733 0.65249C15.5733 1.44925 15.04 2.04682 14.72 2.24601C15.4667 2.4452 16 1.84763 16 1.84763C15.8933 2.74398 15.04 3.54074 14.5067 3.73993C14.2933 10.0144 11.52 14.0978 5.01333 13.9982C4.48 13.9982 5.12 13.9982 4.58667 13.9982C4.26667 13.9982 0.64 13.5998 0 12.2055C2.13333 12.4047 3.62667 11.8071 4.37333 11.11C3.52 10.8112 1.81333 10.7116 1.6 8.3213C1.92 8.52049 2.13333 8.62009 2.77333 8.52049C1.6 7.72373 0.32 7.02657 0.426667 5.03467C0.746667 5.33345 1.38667 5.53264 1.70667 5.43305C1.06667 5.23386 -0.213333 2.3456 0.853333 0.85168C2.56 2.54479 4.37333 4.23791 7.57333 4.3375C7.78667 2.24601 8.64 0.85168 10.3467 0.154515Z" fill="black"/>
</g>
<defs>
<clipPath id="clip0_11534_7054">
<rect width="16" height="14" fill="white"/>
</clipPath>
</defs>
</svg>

<svg xmlns="http://www.w3.org/2000/svg" width="16" height="14" fill="none"><g clip-path="url(#a)"><g clip-path="url(#b)"><path fill="#000" d="M10.347.155c1.6-.498 2.773.298 3.413 1.095.533-.2 1.173-.398 1.813-.598 0 .797-.533 1.395-.853 1.594.747.2 1.28-.398 1.28-.398-.107.896-.96 1.693-1.493 1.892-.214 6.274-2.987 10.358-9.494 10.258h-.426c-.32 0-3.947-.398-4.587-1.792 2.133.199 3.627-.399 4.373-1.096-.853-.299-2.56-.398-2.773-2.789.32.2.533.3 1.173.2C1.6 7.723.32 7.026.427 5.034c.32.298.96.498 1.28.398-.64-.2-1.92-3.087-.854-4.581 1.707 1.693 3.52 3.386 6.72 3.486C7.787 2.246 8.64.852 10.347.155Z"/></g></g><defs><clipPath id="a"><path fill="#fff" d="M16 14H0V0h16z"/></clipPath><clipPath id="b"><path fill="#fff" d="M0 0h16v14H0z"/></clipPath></defs></svg>
